X: 18515
T: I Ha'e A Wife O' Ma Ain
R: slip jig
M: 9/8
K: Edorian
|:EDE G2A B3|EDE G2A BGE|EDE G2A Bcd|DED d2B AFD:|
|:g2g fgf e3|EDE G2A BGE|gag fgf efg|DED d2B AFD:|

